X:2360
T:Butterfly, The
C:Tommy Potts
S:learnt from Tony Gordon
M:9/8
K:Em
|:B2 E G2 E F3 | B2 E G2 E FED| B2 E G2 E F3 | B2 d d2 B AFA :|
|: B2 d e2 f g3 | B2 d g2 e dBA | B2 d e2 f g2 a | b2 a g2 e dBA:|
|: B3 B2 A G2 A | B3 BAB dBA | B3 B2 A G2 A | B2 d g2 e dBA:|


